T: Charlie Hunter
M: 6/8
L: 1/8
K: Dmaj
DFA GBd | Adf a2 g | fed Bcd | ecA GFE | DF/G/A GB/c/d | Adf a2 g | f^ef g=ec | edc d2 :||: afd dcd | BGF G2 F | EGB efd | cA^G A2 a/g/ | fdA FDF | GBd g2 g | f^ef g=ec | edc d2 :|a2 d dd/c/d | BGF G3 | b^ge e^de | cA^G A3 |fdA FD/E/F | GB/c/d g3 | f2 f gec | edc d2 |]
